X: 1
T: S\^arba lui Zdrelea
O: Romania
Z: 2014 John Chambers <jc:trillian.mit.edu>
S: handwritten copy from Yaron Shragai
N: "Dansuri populare"
Q: "Allegro"
M: 2/4
L: 1/8
K: C	% also F, Dm
"B"|:\
"G"G2 FE | "C"C3 E | "F"FE FG | A4 |\
"G"G2 FE | "C"C3 E | "A7"FE (3GFE | "Dm"D4 :|
"A"|:\
"F"CA AA | _B2 A2 | GF EF | "Bb"d2 "F"c2 |\
"F"CA AA | _B2 A2 | "A7"GF EF | "Dm"D4 :|
